assets/images/icons/src/subway.svg

<?xml version="1.0" encoding="utf-8"?>
<!-- Generated by IcoMoon.io -->
<!DOCTYPE svg PUBLIC "-//W3C//DTD SVG 1.1//EN" "http://www.w3.org/Graphics/SVG/1.1/DTD/svg11.dtd">
<svg version="1.1" xmlns="http://www.w3.org/2000/svg" xmlns:xlink="http://www.w3.org/1999/xlink" width="12" height="14" viewBox="0 0 12 14">
<path fill="#444444" d="M8.5 0q1.445 0 2.473 0.73t1.027 1.77v7q0 1.016-0.98 1.734t-2.387 0.758l1.664 1.578q0.125 0.117 0.062 0.273t-0.234 0.156h-8.25q-0.172 0-0.234-0.156t0.062-0.273l1.664-1.578q-1.406-0.039-2.387-0.758t-0.98-1.734v-7q0-1.039 1.027-1.77t2.473-0.73h5zM2.25 10.25q0.516 0 0.883-0.367t0.367-0.883-0.367-0.883-0.883-0.367-0.883 0.367-0.367 0.883 0.367 0.883 0.883 0.367zM5.5 6v-4h-4.25v4h4.25zM9.75 10.25q0.516 0 0.883-0.367t0.367-0.883-0.367-0.883-0.883-0.367-0.883 0.367-0.367 0.883 0.367 0.883 0.883 0.367zM11 6v-4h-4.5v4h4.5z"></path>
</svg>

<svg xmlns="http://www.w3.org/2000/svg" width="12" height="14" viewBox="0 0 12 14"><path fill="#444" d="M8.5 0q1.445 0 2.473.73T12 2.5v7q0 1.016-.98 1.734t-2.387.758l1.664 1.578q.125.117.062.273t-.234.156h-8.25q-.172 0-.234-.156t.062-.273l1.664-1.578q-1.406-.039-2.387-.758T0 9.5v-7Q0 1.461 1.027.73T3.5 0h5zM2.25 10.25q.516 0 .883-.367T3.5 9t-.367-.883-.883-.367-.883.367T1 9t.367.883.883.367zM5.5 6V2H1.25v4H5.5zm4.25 4.25q.516 0 .883-.367T11 9t-.367-.883-.883-.367-.883.367T8.5 9t.367.883.883.367zM11 6V2H6.5v4H11z"/></svg>
